!!!OTL: What brought the blood?, S. 90
!!!id: I0529
**kern
*clefG2
*k[b-]
*g:
*M4/4
{4g
8.g
16f
8.g
16a
8.b-
16g
=2
8.a
16f
8.d
16e
2f}
=3
{4.dd
8dd
16cc
8.a
8.f
16a
=4
2.cc
8b-
8cc
=5
4dd
8.dd
16dd
4cc
8dd
8dd
=6
4g
16g
16a
16g
16f
8.d
16c
=7
16aaaa
16gggg}
{8d
8f
=8
4g
4g
4f
4cc
=9
[4b-
16b-]
16cc
16b-
8g
8.a
8.b-
16a}
=10
{4g
8.g
16f
8d
8c
8d
8f
=11
2.g}
4r
==
*-
!!!minrhy: 16
!!!meters: 4/4 ]  ZZ[4
!!!cut: What brought the blood?, S. 90
!!!reg: Irland
!!!trd: O BOYLE, Sean: 25 Irish Folksongs, Dublin 1976
!!!rhy1: X__X_.XX_.XX_.X  X_.XX_.XX___
!!!rhy2: X__.X_XX_.X_.X  X___.X_X_  X__X_.XX__X_X_  X__XXXXX_.X
!!!key: I0529  16  G 4/4 ]  ZZ[4
!!!mod: HEPTATONIK DORISCH]  AMBITUS[9
!!!kad: -7b-421
!!!akz: 112-7b_5444541-5_1-7b3b1_1-511_
!!!fot: 'a__b__c__d__
!!!for: 'a__b__c__d__
!!!fok: '~d_Sd_^a_V__
!! PHRAS[VORWIEGEND VOLLTAKTIG]
!!!fkt: Ballade, ???
!! IRISCHE V
!! PR[33] 2K[6] 2G[18] 3K[6] 3G[0] 4A[0] 4Ü[0] 5A[0] 6K[6] 6G[0]
!! 7K[0] 7G[0] 8A[0] MEHR[0] SI[36] ABS[33] SR[24] SP[12]
!! ST[8] 2k[6] 2g[6] 3k[6] 3g[6] 4d[0] 4ü[0] 5d[0] 6k[6] 6g[0]
!! 7k[0] 7g[0] 8d[0] mehr[0] si[30] dm[+6] sr[12] sp[18]
!! 1F[6] 2F[17] 3F[67] 4F[0] LF[0] 2P[6] 3P[6] 4P[0] TRI[0] DF[5] AB[36]
!! TF[0] U3K[0] U3[0] U4[0] U4Ü[0] U5[12] U6K[0] U6[0] U7K[24] U7[0]
!! N1[29] N2K[0] N2[24] N3K[12] N3[0] N4[0] N4Ü[0] N5[0] N6K[0] N6[0]
!!!n7k: 0] N7[0] O1[0] O2K[0] O2[0] O3K[0] O3[0] HÖ[0
